assets/icons/qvision/add_a_photo.svg

<svg xmlns="http://www.w3.org/2000/svg" enable-background="new 0 0 24 24" height="24" viewBox="0 0 24 24" width="24"><rect fill="none" height="24" width="24"/><path d="M3,4V1h2v3h3v2H5v3H3V6H0V4H3z M6,10V7h3V4h7l1.83,2H21c1.1,0,2,0.9,2,2v12c0,1.1-0.9,2-2,2H5c-1.1,0-2-0.9-2-2V10H6z M13,19c2.76,0,5-2.24,5-5s-2.24-5-5-5s-5,2.24-5,5S10.24,19,13,19z M9.8,14c0,1.77,1.43,3.2,3.2,3.2s3.2-1.43,3.2-3.2 s-1.43-3.2-3.2-3.2S9.8,12.23,9.8,14z"/></svg>

<svg width="24" height="24" viewBox="0 0 24 24" fill="none" xmlns="http://www.w3.org/2000/svg">
<g clip-path="url(#clip0_147_3178)">
<path d="M3 4V1H5V4H8V6H5V9H3V6H0V4H3ZM6 10V7H9V4H16L17.83 6H21C22.1 6 23 6.9 23 8V20C23 21.1 22.1 22 21 22H5C3.9 22 3 21.1 3 20V10H6ZM13 19C15.76 19 18 16.76 18 14C18 11.24 15.76 9 13 9C10.24 9 8 11.24 8 14C8 16.76 10.24 19 13 19ZM9.8 14C9.8 15.77 11.23 17.2 13 17.2C14.77 17.2 16.2 15.77 16.2 14C16.2 12.23 14.77 10.8 13 10.8C11.23 10.8 9.8 12.23 9.8 14Z" fill="#323232"/>
</g>
<defs>
<clipPath id="clip0_147_3178">
<rect width="24" height="24" fill="white"/>
</clipPath>
</defs>
</svg>
